svgs/sharp-light/ramp-loading.svg

<svg xmlns="http://www.w3.org/2000/svg" viewBox="0 0 448 512"><!--! Font Awesome Pro 6.6.0 by @fontawesome - https://fontawesome.com License - https://fontawesome.com/license (Commercial License) Copyright 2024 Fonticons, Inc. --><path d="M64 32l320 0 0 309.7 32 58.7 0-16.4 0-352 0-32L384 0 64 0 32 0l0 32 0 352 0 16.4 32-58.7L64 32zm80 256l-9.5 0-4.5 8.4-104 192L13.1 512 40 512l368 0 26.9 0-12.8-23.6-104-192-4.5-8.4-9.5 0-160 0zM66.9 480l86.7-160 140.9 0 86.7 160L66.9 480z"/></svg>

<svg xmlns="http://www.w3.org/2000/svg" viewBox="0 0 448 512"><!--! Font Awesome Pro 6.4.2 by @fontawesome - https://fontawesome.com License - https://fontawesome.com/license (Commercial License) Copyright 2023 Fonticons, Inc. --><path d="M64 32H384V341.7l32 58.7V384 32 0H384 64 32V32 384v16.4l32-58.7V32zm80 256h-9.5l-4.5 8.4-104 192L13.1 512H40 408h26.9l-12.8-23.6-104-192-4.5-8.4H304 144zM66.9 480l86.7-160H294.5l86.7 160H66.9z"/></svg>
